X:2395
T:Mannin Veg Veen
T:(Dear little Isle of Man) 
C:Thomas Crellin, Peel 
C:Traditional
O:Isle of Man
Z:Kiaull Vannin 395 
M:3/4 
L:1/8 
Q:100 
K:C 
A2|A/A/ B c3 A|B c d3 d|e e d3 c|d e2 z (cd)|e c d3 e/d/|c A G3 E|cB A3 E|^G A3|| 

